assets/img/wind.svg

<?xml version="1.0" encoding="utf-8"?>
<svg version="1.1" xmlns="http://www.w3.org/2000/svg" xmlns:xlink="http://www.w3.org/1999/xlink" x="0px" y="0px" viewBox="0 0 1000 1000" enable-background="new 0 0 1000 1000" xml:space="preserve">
  <defs>
    <filter id="chalk" height="2" width="1.6" color-interpolation-filters="sRGB" y="-0.5" x="-0.3" bx:pinned="true">
      <title>chalk</title>
      <feTurbulence baseFrequency="50" seed="115" result="result1" numOctaves="1" type="turbulence"/>
      <feOffset result="result2" dx="-5" dy="-5" in="result1"/>
      <feDisplacementMap scale="1.5" yChannelSelector="G" in2="result1" xChannelSelector="R" in="SourceGraphic" result="displacement-map-0"/>
      <feGaussianBlur stdDeviation="0.1" in="displacement-map-0" result="gaussian-blur-0"/>
    </filter>
  </defs>
  <g style="filter: url(#chalk);">
    <g transform="translate(0.000000,392.000000) scale(0.100000,-0.100000)">
      <path d="M7478.4,2643.7c-503.6-113-917.2-471-1083.8-945.9c-47.9-134-93.8-373.4-93.8-488.3c0-24.9,23-70.8,49.8-103.4c38.3-46,65.1-59.4,114.9-59.4c107.2,0,153.2,61.3,168.5,229.8c53.6,528.5,409.7,940.2,911.4,1045.5c488.3,103.4,1009.1-166.6,1258-651c174.2-342.7,149.4-721.9-72.7-1053.1c-149.4-226-367.7-398.3-624.3-495.9l-111-42.1l-3739.7-9.6L514.2,60.6L468.3,7c-59.4-70.9-59.4-155.1,1.9-214.5l46-47.9h3722.4h3724.3l168.5,49.8C8703.9-40.9,9129,428.2,9228.6,1002.7c114.9,679.8-358.1,1388.2-1080,1614.2C7970.5,2672.4,7662.2,2685.8,7478.4,2643.7z"/>
      <path d="M5004.5,1994.6c-44-13.4-118.7-46-166.6-74.7c-162.8-95.7-206.8-208.7-118.7-310.2c57.4-68.9,160.8-72.8,225.9-11.5c55.5,51.7,170.4,99.6,239.3,99.6c26.8,0,86.2-17.2,130.2-38.3c164.7-78.5,224-317.9,118.7-474.9c-97.6-147.4,78.5-137.9-2378.2-137.9H858.9l-55.5-55.5c-30.6-30.6-55.5-74.7-55.5-97.7c0-55.5,49.8-145.5,86.2-160.8c17.2-5.8,1030.2-11.5,2249.9-11.5h2219.3l111.1,42.1c149.4,55.5,291.1,197.2,350.4,350.4c53.6,139.8,59.4,360,11.5,484.4C5661.2,1914.1,5312.8,2092.2,5004.5,1994.6z"/>
      <path d="M217.4-919.8C123.6-937,70-1069.2,117.8-1159.2c51.7-95.7-176.2-91.9,4543.9-91.9c4383,0,4394.5,0,4499.9-38.3c139.8-53.6,281.5-189.6,350.4-335.1c44.1-95.7,53.6-139.8,53.6-268.1c0-136-7.7-170.4-63.2-281.5c-139.8-283.4-438.5-427-735.3-350.4c-275.7,70.8-457.6,277.6-494,570.6c-13.4,113-24.9,145.5-67,180c-67,57.5-151.3,57.5-210.6-3.8c-40.2-38.3-47.9-65.1-47.9-157c1.9-576.3,587.8-1039.7,1160.4-919.1c199.2,42.1,360,132.1,505.5,279.6c300.6,304.5,369.5,716.2,183.8,1102.9c-114.9,243.2-321.7,423.2-584,513.2L9086.9-916l-4413.7,1.9C2245.2-912.1,240.4-916,217.4-919.8z"/>
      <path d="M470.2-1948.1c-61.3-61.3-61.3-145.5-1.9-216.4l46-53.6l3121.2-9.6l3123.1-9.6l53.6-40.2c93.8-68.9,139.8-157,139.8-262.3c0-283.4-315.9-434.7-532.3-252.8c-74.7,63.2-141.7,76.6-210.6,40.2c-63.2-32.6-80.4-65.1-80.4-145.5c0-78.5,80.4-162.8,225.9-233.6c113-55.5,145.6-63.2,281.5-63.2c187.6,1.9,327.4,57.5,453.8,185.7c139.8,137.9,178.1,239.4,178.1,465.3c0,170.4-5.8,203-51.7,287.2c-57.4,111.1-183.8,235.5-306.4,300.6l-82.3,44l-3155.6,5.7l-3155.6,3.8L470.2-1948.1z"/>
      <path d="M828.2-2892.1c-30.6-11.5-80.4-107.2-80.4-157c0-21.1,21.1-63.2,46-91.9l46-53.6l2008.7-9.6l2006.7-9.6l120.6-65.1c134-72.8,229.8-176.2,294.9-319.8c67-143.6,63.2-381-9.6-526.6c-61.3-128.3-208.7-271.9-335.1-329.3c-139.8-63.2-379.1-59.4-522.8,7.7c-212.5,99.6-350.4,298.7-381.1,547.6c-11.5,86.2-28.7,137.9-55.5,164.7c-55.5,55.5-158.9,53.6-222.1-5.7c-130.2-122.6,0-564.9,239.4-804.2c377.2-377.2,997.6-379.1,1372.9-1.9c538.1,538.1,293,1445.7-444.2,1641c-76.6,21.1-484.5,26.8-2077.6,24.9C1745.4-2880.6,841.6-2886.3,828.2-2892.1z"/>
    </g>
  </g>
</svg>

<?xml version="1.0" encoding="utf-8"?>
<svg version="1.1" x="0px" y="0px" viewBox="0 0 600 275" enable-background="new 0 0 1000 1000" xmlns="http://www.w3.org/2000/svg" xmlns:bx="https://boxy-svg.com">
  <defs>
    <filter id="chalk" height="2" width="1.6" color-interpolation-filters="sRGB" y="-0.5" x="-0.3" bx:pinned="true">
      <title>chalk</title>
      <feTurbulence baseFrequency="50" seed="115" result="result1" numOctaves="1" type="turbulence"/>
      <feOffset result="result2" dx="-5" dy="-5" in="result1"/>
      <feDisplacementMap scale="1.5" yChannelSelector="G" in2="result1" xChannelSelector="R" in="SourceGraphic" result="displacement-map-0"/>
      <feGaussianBlur stdDeviation="0.1" in="displacement-map-0" result="gaussian-blur-0"/>
    </filter>
  </defs>
  <g style="filter: url(#chalk);" transform="matrix(0.362111, 0, 0, 0.362111, 239.274994, -45.320442)">
    <g transform="translate(0.000000,392.000000) scale(0.100000,-0.100000)">
      <path d="M 7478.4 2643.7 C 6974.8 2530.7 6561.2 2172.7 6394.6 1697.8 C 6346.7 1563.8 6300.8 1324.4 6300.8 1209.5 C 6300.8 1184.6 6323.8 1138.7 6350.6 1106.1 C 6388.9 1060.1 6415.7 1046.7 6465.5 1046.7 C 6572.7 1046.7 6618.7 1108 6634 1276.5 C 6687.6 1805 7043.7 2216.7 7545.4 2322 C 8033.7 2425.4 8554.5 2155.4 8803.4 1671 C 8977.6 1328.3 8952.8 949.1 8730.7 617.9 C 8581.3 391.9 8363 219.6 8106.4 122 L 7995.4 79.9 L 4255.7 70.3 L -6334.578 60.6 L -6380.478 7 C -6439.878 -63.9 -6439.878 -148.1 -6378.578 -207.5 L -6332.578 -255.4 L 4238.6 -255.4 L 7962.9 -255.4 L 8131.4 -205.6 C 8703.9 -40.9 9129 428.2 9228.6 1002.7 C 9343.5 1682.5 8870.5 2390.9 8148.6 2616.9 C 7970.5 2672.4 7662.2 2685.8 7478.4 2643.7 Z"/>
      <path d="M 5004.5 1994.6 C 4960.5 1981.2 4885.8 1948.6 4837.9 1919.9 C 4675.1 1824.2 4631.1 1711.2 4719.2 1609.7 C 4776.6 1540.8 4880 1536.9 4945.1 1598.2 C 5000.6 1649.9 5115.5 1697.8 5184.4 1697.8 C 5211.2 1697.8 5270.6 1680.6 5314.6 1659.5 C 5479.3 1581 5538.6 1341.6 5433.3 1184.6 C 5335.7 1037.2 5511.8 1046.7 3055.1 1046.7 L -6387.101 1046.7 L -6442.601 991.2 C -6473.201 960.6 -6498.101 916.5 -6498.101 893.5 C -6498.101 838 -6448.301 748 -6411.901 732.7 C -6394.701 726.9 1864.3 721.2 3084 721.2 L 5303.3 721.2 L 5414.4 763.3 C 5563.8 818.8 5705.5 960.5 5764.8 1113.7 C 5818.4 1253.5 5824.2 1473.7 5776.3 1598.1 C 5661.2 1914.1 5312.8 2092.2 5004.5 1994.6 Z"/>
      <path d="M -5266.057 -919.8 C -5359.857 -937 -5413.457 -1069.2 -5365.657 -1159.2 C -5313.957 -1254.9 -58.4 -1251.1 4661.7 -1251.1 C 9044.7 -1251.1 9056.2 -1251.1 9161.6 -1289.4 C 9301.4 -1343 9443.1 -1479 9512 -1624.5 C 9556.1 -1720.2 9565.6 -1764.3 9565.6 -1892.6 C 9565.6 -2028.6 9557.9 -2063 9502.4 -2174.1 C 9362.6 -2457.5 9063.9 -2601.1 8767.1 -2524.5 C 8491.4 -2453.7 8309.5 -2246.9 8273.1 -1953.9 C 8259.7 -1840.9 8248.2 -1808.4 8206.1 -1773.9 C 8139.1 -1716.4 8054.8 -1716.4 7995.5 -1777.7 C 7955.3 -1816 7947.6 -1842.8 7947.6 -1934.7 C 7949.5 -2511 8535.4 -2974.4 9108 -2853.8 C 9307.2 -2811.7 9468 -2721.7 9613.5 -2574.2 C 9914.1 -2269.7 9983 -1858 9797.3 -1471.3 C 9682.4 -1228.1 9475.6 -1048.1 9213.3 -958.1 L 9086.9 -916 L 4673.2 -914.1 C 2245.2 -912.1 -5243.057 -916 -5266.057 -919.8 Z"/>
      <path d="M -6146.14 -1948.1 C -6207.44 -2009.4 -6207.44 -2093.6 -6148.04 -2164.5 L -6102.04 -2218.1 L 3635.5 -2227.7 L 6758.6 -2237.3 L 6812.2 -2277.5 C 6906 -2346.4 6952 -2434.5 6952 -2539.8 C 6952 -2823.2 6636.1 -2974.5 6419.7 -2792.6 C 6345 -2729.4 6278 -2716 6209.1 -2752.4 C 6145.9 -2785 6128.7 -2817.5 6128.7 -2897.9 C 6128.7 -2976.4 6209.1 -3060.7 6354.6 -3131.5 C 6467.6 -3187 6500.2 -3194.7 6636.1 -3194.7 C 6823.7 -3192.8 6963.5 -3137.2 7089.9 -3009 C 7229.7 -2871.1 7268 -2769.6 7268 -2543.7 C 7268 -2373.3 7262.2 -2340.7 7216.3 -2256.5 C 7158.9 -2145.4 7032.5 -2021 6909.9 -1955.9 L 6827.6 -1911.9 L 3672 -1906.2 L -6099.94 -1902.4 L -6146.14 -1948.1 Z"/>
      <path d="M -5485.196 -2892.2 C -5515.796 -2903.7 -5565.596 -2999.4 -5565.596 -3049.2 C -5565.596 -3070.3 -5544.496 -3112.4 -5519.596 -3141.1 L -5473.596 -3194.7 L 2848.5 -3204.2 L 4855.2 -3213.8 L 4975.8 -3278.9 C 5109.8 -3351.7 5205.6 -3455.1 5270.7 -3598.7 C 5337.7 -3742.3 5333.9 -3979.7 5261.1 -4125.3 C 5199.8 -4253.6 5052.4 -4397.2 4926 -4454.6 C 4786.2 -4517.8 4546.9 -4514 4403.2 -4446.9 C 4190.7 -4347.3 4052.8 -4148.2 4022.1 -3899.3 C 4010.6 -3813.1 3993.4 -3761.4 3966.6 -3734.6 C 3911.1 -3679.1 3807.7 -3681 3744.5 -3740.3 C 3614.3 -3862.9 3744.5 -4305.2 3983.9 -4544.5 C 4361.1 -4921.7 4981.5 -4923.6 5356.8 -4546.4 C 5894.9 -4008.3 5649.8 -3100.7 4912.6 -2905.4 C 4836 -2884.3 4428.1 -2878.6 2835 -2880.5 C 1745.4 -2880.6 -5471.796 -2886.4 -5485.196 -2892.2 Z"/>
    </g>
  </g>
</svg>
